X: 1
T: Montgomerie's Maggot
M: 6/8
L: 1/8
R: jig
K: Amix
A2c- cAc | dBd cAc | A2c- cAc | B/c/dc BGB |
A2c- cAc | dBd cAc | dfd c/d/ec | Bdg BGB :|
|: A2e- ece | fdf ece | A2e- ece | B/c/dc BGB |
A2e- ece | fdf edc | dfd c/d/ec | Bdg BGB :|
|: Aae cAc | dBd cAc | Aae cAc | B/c/dc BGB |
Aae cAc | dBd cAc | dfd c/d/ec | Bdg BGB :|
|: Agf ece | fdf ece | Agf ece | B/c/dc BGB |
Agf ece | fdf edc | dfd c/d/ec | Bdg BGB :|
|: A2c- cea | dfa cea | A2c- cea | B/c/dc BGB |
A2c- cea | dfa cea | dfd c/d/ec | Bdg BGB :|
|: A2e- ecA | fdB eca | A2e- ecA | B/c/dc BGB |
A2e- ecA | fdB gec | dfd c/d/ec | Bdg BGB :|
|: Aae cAc | Aae cAc | Aae cAc | B/c/dc BGB |
Aae c/d/e/d/c/B/ | Aae cAc | dfd c/d/ec | Bdg BGB :|
|: Agf ece | agf ece | Agf ece | B/c/dc BGB |
Agf Afe | Aed Adc | dfd c/d/ec | Bdg BGB :|
